X:1
T:Title
%%score { ( 1 4 ) | ( 2 3 ) }
L:1/8
M:6/8
K:Db
V:1 treble nm="Grand Piano"
V:4 treble 
V:2 bass 
V:3 bass 
V:1
 z3 z2[Q:1/4=90] [FA] | [Fd]2 [Fd] [Ge][Fd][GB] | [FA][FA][DF] [FA]2 [FA] | %3
 .[CGA]2 [G,CE] .[CA]2 [CGB] | [FA]3- [FA]2 [FA] | [Fd]2 [Fd] [Ge][Fd][GB] | %6
 [FA]2 [DF] [FA]2 [FA] | ccc ddd |[M:5/8] e-e- e3 |[M:1/8] A |[M:3/4] [Af][Ge] [Fd]d cB | %11
 [FA][FA] [DF] [FA]2 [FA] | z2 z .A3 | [FA]4- [FA][FA] | [Af]e [Fd]d c[DGB] | %15
 [DFA]2 [A,DF] [DFA]2 A/A/ | BB Bc BA |[M:5/8] [Fd]-[Fd]- [Fd]3 |] %18
V:2
 z3 z2 [D,D] | [D,A,]2 [D,A,] [D,A,][D,A,][D,D] | [D,D][D,D][D,A,] [D,D]2 [D,D] | z EA,, z EA,, | %4
 [D,D]3- [D,D]2 [D,D] | [D,A,]2 [D,A,] [D,A,]2 [D,D] | [D,D]2 [D,A,] [D,D]2 [D,D] | %7
 [A,G][A,G][A,G] [A,F][A,F][A,F] |[M:5/8] [A,CG]-[A,CG]- [A,CG]3 |[M:1/8] [A,CG] | %10
[M:3/4][K:bass] [D,D][D,A,] [D,A,][G,B,G] [G,CG][G,DG] | [D,D][D,D] [D,A,] [D,D]2 [D,D] | %12
 z2 z .[A,,G,]3 | [D,D]4- [D,D][D,D] | D[B,G] [D,A,][G,G]- [G,CG]G, | D,2 D, D,2 [F,D]/[F,D]/ | %16
 [G,DG][G,DG] [G,DG][A,G] [A,EG][A,CG] |[M:5/8][K:bass] [D,D]-[D,D]- [D,D]3 |] %18
V:3
 x6 | x6 | x6 | .A,,3 .[A,,G,]3 | x6 | x6 | x6 | x6 |[M:5/8] x5 |[M:1/8] x |[M:3/4][K:bass] x6 | %11
 x6 | A,,A,, .A,,2 EA,, | x6 | D,2 z B, z2 | x6 | x6 |[M:5/8][K:bass] x5 |] %18
V:4
 x6 | x6 | x6 | x6 | x6 | x6 | x6 | x6 |[M:5/8] x5 |[M:1/8] x |[M:3/4] x6 | x6 | %12
 [CGA][CEA] [G,CE]C z [CGB] | x6 | x6 | x6 | x6 |[M:5/8] x5 |] %18

